X:1
T:Sonata N o V 
T:Flauto & Basso Continuo, Opus 1
T:Johann Baptist Wendling
%%score 1 2
L:1/8
Q:1/4=130
M:2/4
K:F
V:1 treble nm="Flauto" snm="Fl."
V:2 bass nm="Basso Continuo" snm="Pno."
V:1
"^Allegro assai" f4 | a4 | g3 e | c2 z2 | g4 | b4 | a3 b | c'2 z2 | a4 | c'3 a | g4 | c'3 g | f4 | %13
 d'3 f | e4 | c'3 e | d2 a2 | (3agf (3edc | T=B3 A | G2 z2 |!f! (Gg) (Ag) | (=Bg) (cg) | %22
!p! (fd) (_ec) | (d=B) (cA) |!f! (Gg) (Ag) | (=Bg) (cg) |!p! (fd) (_ec) | (d=B) (cA) | %28
!f! (=Bg) (Ag) | G2 z2 | (d/e/f) e z | (d/e/f) e z | (3dfd (3=BdB | c2 z2 | (d/e/f) e z | %35
 (d/e/f) e z | (3dfd (3=BdB | (3cGc (3ece | ge d^c | (3d^cd (3fdf | af ed | e g2 =b | c'a gf | %43
 (3egf (3edc | d4 | c2 z2 :: c4 | e4 | d3 =B | G2 z2 | d4 | f4 | Te3 f | g2 z2 | f3 g | %55
 (af) (c'a) | Tg3 a | b2 z2 | g3 a | (bg) (d'b) | Ta3 b | c'2 z2 | d'>b{c'} Tb(a/b/) | %63
 c'>a Ta(g/a/) | b>g Tg(^f/g/) | a>f Tf(e/f/) | Te>f Tg>a | ba (3gaf | (3efd (3^cdB | A2 z2 | %70
!f! (Aa) (=Ba) | (^ca) (da) |!p! (ge) (fd) | (e^c) (d=B) |!f! (Aa) (=Ba) | (^ca) (da) | %76
!p! (ge) (fd) | (e^c) (d=B) |!f! (3^cAc (3ece | g2 z2 | (3d^cd (3fdf | a2 z2 | bg fe | f2 ge | %84
 Te4 | d2 z2 | f4 | a4 | g3 e | c2 z2 | (gc) (ga) | (bg) (d'b) | Ta3 b | c'2 z2 | _e4- | e4 | d4- | %97
 d4 | d'4- | d'4 | d'c' ba | g2 f2 | Tf4 | e2 z2 | Fa Gb | Ac' Fa | (Gb) (Eg) | (Fa) (Gb) | %108
 (Ac') (Fa) | (Gb) (Eg) | f2 z2 | (g/a/b) a z | (g/a/b) a z | (3gbg (3ege | f2 z2 | (g/a/b) a z | %116
 (g/a/b) a z | (3gbg (3ege | (3fcf (3afa | c'a g^f | (3gfg (3bab | d'b ag | a c'2 e' | f'd' c'b | %124
 (3ac'b (3agf | Tg4 | f2 z2 :| %127
V:2
 F,2 F,2 | F,2 F,2 | C2 C2 | C2 C2 | C,2 E,2 | G,2 C,2 | F,2 F,,2 | F,2 A,2 | F,2 F,2 | F,2 F,2 | %10
 E,2 E,2 | E,2 E,2 | D,2 D,2 | D,2 D,2 | C,2 C,2 | C,2 C,2 | F,2 F,2 | F,2 ^F,2 | G,2 G,2 | %19
 G,,2 G,2 | G,,2 z2 | G,2 A,2 | (=B,2 C2) | G,2 z2 | G,,2 z2 | G,2 A,2 | (=B,2 C2) | G,2 z2 | %28
 G,2 ^F,2 | G,2 A,2 | (=B,2 C2) | (=B,2 C2) | F,2 G,2 | C,2 A,2 | (=B,2 C2) | (=B,2 C2) | F,2 G,2 | %37
 C,2 z2 | C,2 z2 | =B,,2 z2 | =B,,2 z2 | C,2 z2 | A,2 =B,2 | C2 C,2 | F,2 G,2 | C,2 z2 :: C,2 C,2 | %47
 C,2 C,2 | G,2 G,2 | G,2 G,2 | G,,2 =B,,2 | D,2 G,,2 | C,2 D,2 | E,2 C,2 | F,2 F,2 | F,2 F,2 | %56
 C,2 C,2 | C,2 C,2 | E,2 E,2 | E,2 E,2 | F,2 F,2 | F,2 F,2 | B,2 D2 | A,2 C2 | G,2 B,2 | F,2 A,2 | %66
 G,4- | G,>A, B,>G, | G,2 _A,2 | A,2 A,,2 | A,,2 z2 | A,2 =B,2 | ^C2 D2 | ^C2 _A,2 | A,2 z2 | %75
 A,2 =B,2 | ^C2 D2 | ^C2 _A,2 | A,2 z2 | A,2 ^C2 | D2 z2 | F,2 D,2 | ^C,4 | D,2 B,G, | A,2 A,,2 | %85
!mf! D,>B, A,>G, |!p! F,2 F,2 | F,2 F,2 | C2 C2 | C2 C2 | C,2 E,2 | G,2 E,2 | F,2 F,,2 | F,2 A,B, | %94
 C2 A,2 | ^F,2 A,2 | (B,2 A,2 | G,2 F,2) | E,2 E,F, | G,2 G,A, | B,4- | B,2 =B,2 | C2 C,2 | %103
 C,2 z2 | !wedge!F,2 !wedge!E,2 | !wedge!F,2 !wedge!A,2 | !wedge!E,2 !wedge!G,2 | %107
 !wedge!A,2 !wedge!E,2 | !wedge!F,2 !wedge!A,2 | !wedge!E,2 !wedge!G,2 | A,2 F,2 | (E,2 F,2) | %112
 (E,2 F,2) | B,2 C2 | F,2 A,2 | (E,2 F,2) | (E,2 F,2) | B,2 C2 | F,2 z2 | F,2 z2 | E,2 z2 | %121
 E,2 z2 | F,2 C,2 | D,2 E,2 | F,2 F,,2 | B,,2 C,2 | F,2 z2 :| %127

